X: 101
T: Lady Hariot Hope's Reel
R: reel
B: Robert Bremner "A Collection of Scots Reels or Country Dances" p.10 #1
S: http://imslp.org/wiki/A_Collection_of_Scots_Reels_or_Country_Dances_(Bremner,_Robert)
Z: 2013 John Chambers <jc:trillian.mit.edu>
M: C|
L: 1/8
K: F
% - - - - - - - - - - - - - - - - - - - - - - - - -
V: 1
|:\
FAcf c2(TBA) | f2(a/g/f) gGGA |\
FAcf c2(TBA) | BGcA F/F/F F2 :|\
fcfg (f/g/a) (Tgf) | ecgc acgc |
fcfg (f/g/a) (Tgf) | cfeg f/f/f f2 |\
fcfg (f/g/a) (Tgf) | g>fga bag(a |\
fd)cB A2(Tf>d) | cABG F/F/F F2 |]
% - - - - - - - - - - - - - - - - - - - - - - - - -
V: 2 clef=bass middle=d
|:\
f2f2 f2f2 | f2f2 g2g2 |\
f2f2 f2f2 | c2c2 F2F2 :|\
f2f2 f2f2 | c2c2 c2c2 |
f2f2 f2f2 | c2c2 F2F2 |\
f2f2 f2f2 | g2g2 g2g2 |\
f2f2 f2B2 | c2c2 F2F2 |]
% - - - - - - - - - - - - - - - - - - - - - - - - -

%%sep 1 1 500
%%sep 1 1 500
